X:1
T:Miss Grant of Elchies
T:Miss Grant of Elchies
T:William Marshall
C:William Marshall
%%score { ( 1 2 ) ( 3 4 ) }
L:1/8
M:4/4
K:Bb
V:1 treble 
V:2 treble 
V:3 bass 
V:4 bass 
V:1
 B,<BB>c{Bc} d<B TB2 | C<cc>d{cd} e<c Tc2 | d<f-f>!wedge!g fbdB | [DF]>B [EA]/B/c/A/{D} d<B B :| %4
 B/c/ | dBec dB TG2 | FBGB [EA]c- cB/c/ | dBec dB TG2 | ([DF]>B) [EA]/B/c/A/{D} d<B- BB/c/ | %9
 dBec dB TG2 | FBGB [EA]c- cB/c/ | d<ff>g f<b B2 | ([DF]>B) [EA]/B/c/A/{D} [Dd]<[DB] T[DB] |] %13
V:2
 x8 | x2 G2 x4 | x8 | x7 :| x | F2 F2 x4 | x8 | x8 | x8 | x8 | x8 | x8 | x7 |] %13
V:3
 [B,,,B,,]2 [B,,,B,,]2 [B,,,B,,]2 [D,,D,]2 | [E,,E,]2 [E,,E,][D,,D,] [C,,C,]2 [A,,A,]2 | %2
 [B,,,B,,]2 [D,,D,][E,,E,] [D,,D,]2 [B,,,B,,]2 | [F,,F,]2 [F,,F,]2 [B,,,B,,]2 [B,,,B,,] :| z | %5
 [B,,B,]2 [G,,G,]2 [B,,B,]2 [E,B,]2 | [D,B,]2 [E,B,]2 [F,,F,]2 [F,,F,]2 | %7
 [B,,B,]2 [G,,G,]2 [B,,B,]2 [E,B,]2 | [F,,F,]2 [F,,F,]2 [B,,,B,,]2 [B,,,B,,] z | %9
 [B,,B,]2 [A,,A,]2 [B,,B,]2 [E,B,]2 | [D,B,]2 [E,B,]2 [F,,F,]2 [F,,F,]2 | %11
 [B,,B,]2 B,2 [D,B,]2 [B,,B,]2 | [F,,F,]2 [F,,F,]2 [B,,,B,,]2 [B,,,B,,] |] %13
V:4
 x8 | x8 | x8 | x7 :| x | x8 | x8 | x8 | x8 | x8 | x8 | x2 D,E, x4 | x7 |] %13

